X:1
T:Alan Bane
M:6/8
L:1/8
K:E
 E| GGG G2 E| G2 G E/2 E3/2 E| EEEF-E C| B,3- B,2 E| EEE EDC| B,2 E E2 G|\
 G2 F F2 G| F3- F2 E| G2 G G2 E| G2 G E2 E| E2 EF-E C| B,3- B,2 E|\
 E2 E E2 C| B,2 E E2 G|G-F E D2 F| E3- E2||
